!!!OTL: Alter Kirmesgesang. / (Ansinglied.)
!!!ARE: Europa, Mitteleuropa, Deutschland
!!!SCT: A0490
!!!TXL: @@GMH
!!!YEM: Copyright 1995, estate of Helmut Schaffrath.
**kern	**text
*M2/4	*
*k[f#]	*
*G:	*
!LO:TX:a:t=Solo.	!
{8d	1._So
=1	=1
8.g	tret'n
16a	wir
8b	nun
8cc	her-
=2	=2
4dd	-fü-
8b	-re,
8r}	.
=3	=3
!LO:TX:a:t=Refr.	!
{8dd	[Aus
8dd	den
8dd	Re-
8dd	-ben
=4	=4
8dd	wächſt
16ccL	der
16bJ	.
8a}	Wein]
!LO:TX:a:t=Solo.	!
{16aL	vor
16bJ	.
=5	=5
8cc	die-
8cc	-ſer
8b	Bau-
8b	-ers-
=6	=6
4a	-thü-
8g	-re.
8r}	.
=7	=7
!LO:TX:a:t=Refr.	!
{8.g	[Aus
16a	den
8b/	Re-
8a	-ben
=8	=8
(16gL	wächſt
16aJ)	.
(<16bL	der
16ccJ)	.
8dd	Wein,
8dd	ſteh
=9	=9
8ee}	auf,
{8dd	du
8cc	wack-
8b	-res
=10	=10
8a	Mä-
8a	-de-
8g}	-lein!
==	==
!!!GTL: Gemischter Inhalt
!!!AGN: Romanze, Ballade, Lied
!! Mitgetheilt durch Hohnbaum in Bueschings Woechentl. Nachrichten
!!    4, S. 39.
!!!ONB: ESAC (Essen Associative Code) Database: ALTDEU
!!!AMT: simple duple
!!!AIN: vox
!!!EED: Helmut Schaffrath
!!!EEV: 1.0
!!!RDF**kern: < = below
!!!URL-scan: https://rosdok.uni-rostock.de/mcrviewer/recordIdentifier/rosdok_ppn738218359/iview2/phys_0677.iview2?x=-1272.8135649766991&y=1236.8854961423203&scale=0.3197610882076923&rotation=0&layout=singlePageLayout&logicalDiv=log_0018
!!!ENC: Anna Maria Matuszewska
!!!EEV: 2024/19/03
*-	*-
